!!!COM: Anonymous
!!!OTL:	Tambur tambur
!!!AGN:	Song; Chanson
!!!SCT:	Ano3002
!!!SCA:	Ano3002
!!!SMS: Cortona 95-96, Paris 11v
!!!folio: 
!!!voices:	4
**kern	**kern	**kern	**kern
*staff4	*staff3	*staff2	*staff1
*Ivox	*Ivox	*Ivox	*Ivox
*I"Bassus	*I"Tenor	*I"Altus	*I"Superius
*I'B	*I'T	*I'A	*I'S
*clefF4	*clefGv2	*clefGv2	*clefG2
*k[b-]	*k[b-]	*k[b-]	*k[b-]
*M2/1	*M2/1	*M2/1	*M2/1
*met(C|)	*met(C|)	*met(C|)	*met(C|)
=1-	=1-	=1-	=1-
!LO:TX:Z=8:t=Bass reconstructed	!	!	!
0r	0r	1r	0r
.	.	1c	.
=2	=2	=2	=2
0r	0r	1d	1r
.	.	1d	1f
=3	=3	=3	=3
1r	0r	1c	1g
1C	.	2r	1g
.	.	[2c	.
=4	=4	=4	=4
1D	1r	2c]	1f
.	.	4B-	.
.	.	4A	.
1D	1F	1B-	2r
.	.	.	[2f
=5	=5	=5	=5
0C	1G	1c	2f]
.	.	.	4e
.	.	.	4d
.	1G	2r	1e
.	.	2c	.
=6	=6	=6	=6
0r	0F	2d	1f
.	.	2d	.
.	.	2d	2r
.	.	2d	2f
=7	=7	=7	=7
1r	0r	2c	2g
.	.	1e	2g
1C	.	.	2g
.	.	4d	2g
.	.	4c	.
=8	=8	=8	=8
2D	1r	2B-	2f
2D	.	1c	1a
2D	1F	.	.
2D	.	2B-	4g
.	.	.	4f
=9	=9	=9	=9
1C	2G	0c	2e
.	2G	.	1f
2r	2G	.	.
2C	2G	.	2e
=10	=10	=10	=10
2D	1F	1r	0f
2.F	.	.	.
.	2r	1c	.
4E	.	.	.
4D	2F	.	.
4C	.	.	.
=11	=11	=11	=11
2BB-	1.B-	1.d	0r
1B-	.	.	.
4A	2c	2e	.
4G	.	.	.
=12	=12	=12	=12
2F	2d	1f	0r
2.D	4c	.	.
.	4B-	.	.
.	1A	1f	.
4E	.	.	.
2F	.	.	.
=13	=13	=13	=13
2E	2.G	0g	0r
2C	.	.	.
.	4A	.	.
2.G	4B-	.	.
.	4G	.	.
.	[2c	.	.
4F	.	.	.
=14	=14	=14	=14
1E	2c]	1g	1r
.	4B-	.	.
.	4A	.	.
1D	1B-	1f	1f
=15	=15	=15	=15
1C	2r	1e	1.g
.	2.c	.	.
2r	.	1c	.
.	4d	.	.
2C	4e	.	2a
.	4f	.	.
=16	=16	=16	=16
1G	2.g	1d	1b-
.	4a	.	.
1G	1g	1d	1b-
=17	=17	=17	=17
2A	2e	1c	0cc
4G	2.g	.	.
4F	.	.	.
2E	.	2r	.
.	4f	.	.
2C	4e	[2c	.
.	4d	.	.
=18	=18	=18	=18
1A	2c	4c]	1cc
.	.	4d	.
.	1f	4e	.
.	.	4f	.
1G	.	1g	1b-
.	2e	.	.
=19	=19	=19	=19
1F	1f	2f	1a
.	.	1a	.
1r	1d	.	1f
.	.	4g	.
.	.	4f	.
=20	=20	=20	=20
1r	0c	2e	1g
.	.	1f	.
1C	.	.	1g
.	.	2e	.
=21	=21	=21	=21
1.D	0F	1.f	1.f
2E	.	2e	2g
=22	=22	=22	=22
1F	0r	2d	2a
.	.	4c	2.a
.	.	4B-	.
1F	.	1c	.
.	.	.	4g
.	.	.	4f
.	.	.	4e
=23	=23	=23	=23
0G	0r	2B-	1d
.	.	2.d	.
.	.	.	2r
.	.	4c	.
.	.	4B-	[2d
.	.	4A	.
=24	=24	=24	=24
1G	1r	1G	2d]
.	.	.	2e
1F	1F	1A	2f
.	.	.	2d
=25	=25	=25	=25
1E	1.G	2B-	2.e
.	.	2.c	.
.	.	.	4d
1C	.	.	4e
.	.	4d	4f
.	2A	2e	[2g
=26	=26	=26	=26
1D	1B-	2.d	2g]
.	.	.	4f
.	.	4c	4e
1D	1B-	1d	1f
=27	=27	=27	=27
1C	0c	1G	1e
2r	.	2r	2.c
[2C	.	[2g	.
.	.	.	4d
=28	=28	=28	=28
4C]	1c	4g]	4e
4D	.	4f	4f
4E	.	4e	2.g
4F	.	4d	.
1G	1B-	2e	.
.	.	.	4a
.	.	[2d	4b-
.	.	.	8aL
.	.	.	8b-J
=29	=29	=29	=29
2A	1A	2d]	2cc
2.F	.	1c	2a
.	1F	.	4b-
4E	.	.	4a
2D	.	2B-	4g
.	.	.	4f
=30	=30	=30	=30
2.C	1G	0c	2e
.	.	.	1f
4BB-	.	.	.
1C	1G	.	.
.	.	.	2e
=31	=31	=31	=31
2F	0F	1r	[0f
2.F	.	.	.
.	.	1c	.
4E	.	.	.
4D	.	.	.
4C	.	.	.
=32	=32	=32	=32
1BB-	2r	1d	0f]
.	2.B-	.	.
1BB-	.	1d	.
.	4c	.	.
.	2d	.	.
=33	=33	=33	=33
1C	2c	1e	0r
.	4B-	.	.
.	4A	.	.
1C	1G	1e	.
=34	=34	=34	=34
0D	0F	1f	1r
.	.	4f	1f
.	.	4e	.
.	.	4d	.
.	.	4c	.
=35	=35	=35	=35
0r	0r	2B-	1g
.	.	2.c	.
.	.	.	1g
.	.	4d	.
.	.	2e-	.
=36	=36	=36	=36
0r	1r	2d	1a
.	.	4c	.
.	.	4B-	.
.	1F	1c	1a
=37	=37	=37	=37
0r	1G	0B-	1.b-
.	1G	.	.
.	.	.	4a
.	.	.	4g
=38	=38	=38	=38
0r	1A	1r	1f
.	1A	1c	1r
=39	=39	=39	=39
0r	1B-	1.d	0r
.	2r	.	.
.	2B-	2d	.
=40	=40	=40	=40
1r	2A	1e	0r
.	4G	.	.
.	4F	.	.
1C	1c	1e	.
=41	=41	=41	=41
1.D	0F	1f	1r
.	.	4f	1f
.	.	4e	.
2D	.	4d	.
.	.	4c	.
=42	=42	=42	=42
1E	0r	2B-	1.g
.	.	2.c	.
1E	.	.	.
.	.	4d	.
.	.	4e	2g
.	.	4f	.
=43	=43	=43	=43
0F	1r	2d	1a
.	.	4c	.
.	.	4B-	.
.	1F	1c	1a
=44	=44	=44	=44
0r	1.G	0B-	1.b-
.	2G	.	4a
.	.	.	4g
=45	=45	=45	=45
1r	1A	0r	1f
1C	1A	.	1r
=46	=46	=46	=46
1.D	0B-	1r	0r
.	.	1f	.
2D	.	.	.
=47	=47	=47	=47
2E	0r	1g	1r
2F	.	.	.
1G	.	1g	1b-
=48	=48	=48	=48
1r	0r	1a	1.cc
1F	.	1a	.
.	.	.	4b-
.	.	.	4a
=49	=49	=49	=49
1G	1r	1g	1dd
1G	1B-	2d	1dd
.	.	[2g	.
=50	=50	=50	=50
1A	1c	2g]	2.cc
.	.	4f	.
.	.	4e	4b-
1A	1c	1f	4a
.	.	.	4g
.	.	.	[2cc
=51	=51	=51	=51
0G	1d	0g	2cc]
.	.	.	4bni
.	.	.	4a
.	1d	.	1bni
=52	=52	=52	=52
0r	1.c	1e	0cc
.	.	1f	.
.	4B-	.	.
.	4A	.	.
=53	=53	=53	=53
0r	0G	0g	1r
.	.	.	1b-
=54	=54	=54	=54
0r	2r	1r	1.a
.	2.F	.	.
.	.	1f	.
.	4G	.	.
.	4A	.	2f
.	4F	.	.
=55	=55	=55	=55
0r	0c	1.e	1g
.	.	.	1g
.	.	2c	.
=56	=56	=56	=56
2r	1r	1d	1f
2.BB-	.	.	.
.	1B-	1d	2r
4C	.	.	.
4D	.	.	2b-
4BB-	.	.	.
=57	=57	=57	=57
2.F	1.A	2c	4cc
.	.	.	4b-
.	.	1f	4a
4E	.	.	4g
2D	.	.	2f
2E-	4G	[2e-	[2g
.	4F	.	.
=58	=58	=58	=58
1C	1G	4e-]	4g]
.	.	4d	4f
.	.	4c	4e
.	.	4B-	4d
1C	1G	1c	1e
=59	=59	=59	=59
0r	[0F	1r	0f
.	.	1c	.
=60	=60	=60	=60
0r	0F]	1d	1r
.	.	1d	1f
=61	=61	=61	=61
1r	0r	1c	1g
1C	.	2r	1g
.	.	[2c	.
=62	=62	=62	=62
1D	1r	2c]	1f
.	.	4B-	.
.	.	4A	.
1D	1F	1B-	2r
.	.	.	[2f
=63	=63	=63	=63
0C	1G	1c	2f]
.	.	.	4e
.	.	.	4d
.	1G	2r	1e
.	.	2c	.
=64	=64	=64	=64
0r	0F	2d	1f
.	.	2d	.
.	.	2d	2r
.	.	2d	2f
=65	=65	=65	=65
1r	0r	2c	2g
.	.	1e	2g
1C	.	.	2g
.	.	4d	2g
.	.	4c	.
=66	=66	=66	=66
2D	1r	2B-	2f
2D	.	1c	1a
2D	1F	.	.
2D	.	2B-	4g
.	.	.	4f
=67	=67	=67	=67
1C	2G	0c	2e
.	2G	.	1f
2r	2G	.	.
2C	2G	.	2e
=68	=68	=68	=68
2D	1F	1r	0f
2.F	.	.	.
.	2r	1c	.
4E	.	.	.
4D	2F	.	.
4C	.	.	.
=69	=69	=69	=69
2BB-	1.B-	1.d	0r
1B-	.	.	.
4A	2c	2e	.
4G	.	.	.
=70	=70	=70	=70
2F	2d	1f	0r
2.D	4c	.	.
.	4B-	.	.
.	1A	1f	.
4E	.	.	.
2F	.	.	.
=71	=71	=71	=71
2E	2.G	0g	0r
2C	.	.	.
.	4A	.	.
2.G	4B-	.	.
.	4G	.	.
.	[2c	.	.
4F	.	.	.
=72	=72	=72	=72
1E	2c]	1g	1r
.	4B-	.	.
.	4A	.	.
1D	1B-	1f	1f
=73	=73	=73	=73
1C	2r	1e	1.g
.	2.c	.	.
2r	.	1c	.
.	4d	.	.
2C	4e	.	2a
.	4f	.	.
=74	=74	=74	=74
1G	2.g	1d	1b-
.	4a	.	.
1G	2g	1d	1b-
.	2g	.	.
=75	=75	=75	=75
2A	2e	1c	0cc
4G	2.g	.	.
4F	.	.	.
2E	.	2r	.
.	4f	.	.
2C	4e	2c	.
.	4d	.	.
=76	=76	=76	=76
1A	2c	2e	1cc
.	1f	2f	.
1G	.	1g	1b-
.	2e	.	.
=77	=77	=77	=77
1F	2f	2f	1a
.	2.F	1a	.
1r	.	.	1f
.	4G	.	.
.	4A	4g	.
.	4F	4f	.
=78	=78	=78	=78
1r	2c	2e	1g
.	2B-	1f	.
1C	1c	.	1g
.	.	2e	.
=79	=79	=79	=79
1.D	0F	1.f	1.f
2E	.	2e	2g
=80	=80	=80	=80
1F	0r	2d	2a
.	.	4c	2.a
.	.	4B-	.
1F	.	1c	.
.	.	.	4g
.	.	.	4f
.	.	.	4e
=81	=81	=81	=81
0G	0r	2B-	1d
.	.	2.d	.
.	.	.	2r
.	.	4c	.
.	.	4B-	[2d
.	.	4A	.
=82	=82	=82	=82
1G	1r	1G	2d]
.	.	.	2e
1F	1F	1A	2f
.	.	.	2d
=83	=83	=83	=83
1E	1.G	2B-	2.e
.	.	2.c	.
.	.	.	4d
1C	.	.	4e
.	.	4d	4f
.	2A	2e	[2g
=84	=84	=84	=84
1D	1B-	2.d	2g]
.	.	.	4f
.	.	4c	4e
1D	1B-	1d	1f
=85	=85	=85	=85
1C	0c	2G	1e
.	.	2.c	.
2r	.	.	2.c
.	.	4d	.
[2C	.	4e	.
.	.	4f	4d
=86	=86	=86	=86
4C]	1c	4g	4e
4D	.	4f	4f
4E	.	4e	2.g
4F	.	4d	.
1G	1B-	2e	.
.	.	.	4a
.	.	[2d	4b-
.	.	.	8aL
.	.	.	8b-J
=87	=87	=87	=87
2A	1A	2d]	2cc
2.F	.	1c	2a
.	1F	.	4b-
4E	.	.	4a
2D	.	2B-	4g
.	.	.	4f
=88	=88	=88	=88
2.C	1G	[0cl	2e
.	.	.	1f
4BB-	.	.	.
1C	1G	.	.
.	.	.	2e
=89	=89	=89	=89
[0Fl	[0Fl	0c_	0f
=90	=90	=90	=90
0F]	0F]	0c]	0fl
==	==	==	==
*-	*-	*-	*-
!!!RDF**kern: l=long note in original notation
!!!RDF**kern: i=editorial accidental
!!!ENC:	Jesse Rodin 8/14/2013
!!!END:	2013/08/14/
!!!EED:	Jesse Rodin
!!!EEV:	2013/08/14/
!!!ONB:	Translated from MusicXML and edited on 2013/08/14/ by Craig Sapp
!!muse2ps: C^@{COM}\n@{SMS}^i2I150v85,98,85,150Q16
